X:275
T:The sally gardens
R:Reel
O:Ireland
B:Fiddler's Fakebook
S:My arrangement from various sources
Z:Transcription, arrangement, chords:Mike Long
M:C|
L:1/8
K:G
DE|\
"G"G2DG B2GB|dBeB dBAB|"G"d2Bd "C"efge|"D"dBAB "(C)"GEDE|\
"G"G2DG B2GB|
dBeB dBAB|"G"d2 (3(Bcd) "C"efge|"D"dBAB "G"G2:|\
|:Bc|\
"G"dggf g2dg|g2bg agfg|
"Am"eaag a2ea|"(D)"a2bg ageg|\
"G"dggf g2dg|g2bg agfg|"G"d2Bd "C"efge|"D"dBAB "G"G2:|
